assets/icons/24px/stroke/graphics-and-design-24px.svg

<svg width="24" height="24" viewBox="0 0 24 24" fill="none" xmlns="http://www.w3.org/2000/svg">
<path fill-rule="evenodd" clip-rule="evenodd" d="M21.7069 11.2931C22.0889 11.6922 22.082 12.3322 21.6916 12.7227L16.1916 18.2227C15.8011 18.6131 15.175 18.6061 14.7931 18.207C14.4111 17.8078 14.418 17.1678 14.8084 16.7774L20.3084 11.2774C20.6989 10.8869 21.325 10.894 21.7069 11.2931Z" fill="white"/>
<path d="M14 19.9504C14 20.7424 12.5457 21.2176 10.1218 20.9008C9.59031 20.8313 10.9628 20.584 11.0913 19.9504C11.2198 19.3168 11.5001 19 12.3033 19C13.1065 19 14 19.4255 14 19.9504Z" fill="white"/>
<path fill-rule="evenodd" clip-rule="evenodd" d="M11.768 19.6187C11.7077 19.6699 11.637 19.7754 11.5814 20.0498C11.5453 20.2277 11.4646 20.3764 11.3699 20.4983C11.9806 20.5105 12.4742 20.4564 12.8407 20.3583C13.1316 20.2806 13.3106 20.1837 13.4075 20.0997C13.4895 20.0286 13.4991 19.9817 13.5 19.9551C13.4999 19.9554 13.4999 19.9556 13.4998 19.9556C13.4973 19.9562 13.4721 19.8548 13.2183 19.7199C12.9694 19.5877 12.6261 19.5 12.3033 19.5C11.9585 19.5 11.8261 19.5693 11.768 19.6187ZM13.5 19.9504C13.5 19.9519 13.5 19.9535 13.5 19.9551ZM11.1207 18.8565C11.4355 18.5891 11.8449 18.5 12.3033 18.5C12.7837 18.5 13.2888 18.6251 13.6874 18.8368C14.0492 19.029 14.5 19.3947 14.5 19.9504C14.5 20.3208 14.3236 20.629 14.0624 20.8554C13.8108 21.0734 13.4747 21.224 13.099 21.3244C12.3458 21.5258 11.3044 21.5596 10.057 21.3966C10.0115 21.3906 9.95534 21.3813 9.8989 21.3642C9.86103 21.3527 9.73529 21.3139 9.63268 21.199C9.57119 21.1302 9.51556 21.0308 9.50272 20.9053C9.49029 20.784 9.5226 20.6841 9.55584 20.6177C9.61329 20.503 9.69945 20.4362 9.72695 20.4152C9.79639 20.362 9.88186 20.3179 9.93342 20.2915C9.96258 20.2766 9.99406 20.2609 10.0244 20.2458L10.031 20.2425C10.0643 20.2259 10.0975 20.2093 10.1314 20.192C10.2718 20.1202 10.399 20.0475 10.4941 19.9696C10.5886 19.8922 10.6012 19.8505 10.6014 19.8505C10.6014 19.8505 10.6014 19.8507 10.6013 19.851C10.6742 19.4918 10.8079 19.1221 11.1207 18.8565Z" fill="white"/>
<path fill-rule="evenodd" clip-rule="evenodd" d="M6.93417 3C6.95604 3 6.97799 3 7 3L13.0658 3C13.9523 2.99995 14.7161 2.99991 15.3278 3.08215C15.9833 3.17028 16.6117 3.36902 17.1213 3.87868C17.631 4.38835 17.8297 5.0167 17.9179 5.67221C18.0001 6.28387 18.0001 7.04769 18 7.93417L18 9C18 9.55229 17.5523 10 17 10C16.4477 10 16 9.55229 16 9V8C16 7.02893 15.9979 6.40122 15.9357 5.93871C15.8774 5.50497 15.7832 5.36902 15.7071 5.2929C15.631 5.21677 15.495 5.12263 15.0613 5.06431C14.5988 5.00213 13.9711 5 13 5H7C6.02893 5 5.40122 5.00213 4.93871 5.06431C4.50497 5.12263 4.36902 5.21677 4.2929 5.2929C4.21677 5.36902 4.12263 5.50497 4.06431 5.93871C4.00213 6.40121 4 7.02893 4 8V13C4 13.9711 4.00213 14.5988 4.06431 15.0613C4.12263 15.495 4.21677 15.631 4.2929 15.7071C4.36902 15.7832 4.50497 15.8774 4.93871 15.9357C5.40122 15.9979 6.02893 16 7 16H7.5C8.05229 16 8.5 16.4477 8.5 17C8.5 17.5523 8.05229 18 7.5 18L6.93417 18C6.04769 18.0001 5.28387 18.0001 4.67221 17.9179C4.0167 17.8297 3.38835 17.631 2.87868 17.1213C2.36902 16.6117 2.17028 15.9833 2.08215 15.3278C1.99991 14.7161 1.99995 13.9523 2 13.0658L2 8C2 7.97799 2 7.95604 2 7.93417C1.99995 7.04769 1.99991 6.28387 2.08215 5.67221C2.17028 5.0167 2.36902 4.38835 2.87868 3.87868C3.38835 3.36902 4.0167 3.17028 4.67221 3.08215C5.28387 2.99991 6.04769 2.99995 6.93417 3Z" fill="white"/>
<path fill-rule="evenodd" clip-rule="evenodd" d="M10.742 13.6713C10.3376 14.0469 9.67753 14.0509 9.26774 13.6802L7.23135 11.8379C6.86478 11.5063 6.66253 11.3262 6.50481 11.2172C6.50275 11.2158 6.50072 11.2144 6.49874 11.213C6.49676 11.2144 6.49473 11.2158 6.49268 11.2172C6.33501 11.3262 6.13285 11.5065 5.76644 11.8382L3.73263 13.6798C3.32302 14.0507 2.66296 14.047 2.25835 13.6716C1.85373 13.2961 1.85778 12.691 2.26738 12.3201L4.3012 10.4785C4.31455 10.4664 4.32788 10.4544 4.3412 10.4423C4.65191 10.1608 4.95428 9.88693 5.23705 9.6914C5.55608 9.47079 5.96795 9.26402 6.49825 9.26391C7.02856 9.2638 7.44053 9.4704 7.75967 9.69087C8.04254 9.88628 8.34504 10.1601 8.65589 10.4414C8.66922 10.4534 8.68256 10.4655 8.69591 10.4776L10.7323 12.3199C11.1421 12.6906 11.1464 13.2956 10.742 13.6713Z" fill="white"/>
<path fill-rule="evenodd" clip-rule="evenodd" d="M17.9152 9.45762C17.6395 9.92095 17.0063 10.0917 16.5008 9.83895L13.8305 8.50377C13.4886 8.33281 13.3086 8.24449 13.1744 8.19463C13.1725 8.1939 13.1705 8.19319 13.1687 8.1925C13.167 8.19361 13.1654 8.19474 13.1637 8.19591C13.0478 8.27549 12.8983 8.40294 12.6153 8.64815L9.08941 11.7025C8.67095 12.065 8.01114 12.0479 7.61569 11.6643C7.22024 11.2807 7.23889 10.6759 7.65735 10.3134L11.1832 7.25905C11.194 7.24968 11.2048 7.2403 11.2157 7.23092C11.4529 7.02537 11.6902 6.81968 11.9136 6.66627C12.1688 6.49105 12.4868 6.32478 12.8977 6.27597C13.3085 6.22716 13.6623 6.31361 13.9577 6.4234C14.2164 6.51954 14.5032 6.66296 14.7897 6.80629C14.8028 6.81283 14.8158 6.81937 14.8289 6.82591L17.4992 8.16108C18.0047 8.41381 18.1909 8.99429 17.9152 9.45762Z" fill="white"/>
</svg>

<svg width="24" height="24" fill="none" xmlns="http://www.w3.org/2000/svg"><path fill-rule="evenodd" clip-rule="evenodd" d="M21.707 11.293c.382.4.375 1.04-.015 1.43l-5.5 5.5a.974.974 0 0 1-1.399-.016c-.382-.4-.375-1.04.015-1.43l5.5-5.5a.974.974 0 0 1 1.399.016z" fill="#fff"/><path d="M14 19.95c0 .792-1.454 1.268-3.878.95-.532-.069.84-.316.97-.95.128-.633.408-.95 1.211-.95.803 0 1.697.425 1.697.95z" fill="#fff"/><path fill-rule="evenodd" clip-rule="evenodd" d="M11.768 19.619c-.06.05-.131.156-.187.43a1.079 1.079 0 0 1-.211.45c.61.012 1.104-.043 1.47-.14.292-.078.47-.175.568-.26.082-.07.091-.117.092-.144-.003.001-.028-.1-.282-.235a2.05 2.05 0 0 0-.915-.22c-.345 0-.477.07-.535.119zm1.732.331v.005zm-2.38-1.093c.316-.268.725-.357 1.183-.357.48 0 .986.125 1.384.337.362.192.813.558.813 1.113 0 .37-.176.679-.438.905-.251.218-.587.369-.963.47-.753.2-1.795.235-3.042.072a.998.998 0 0 1-.158-.033.579.579 0 0 1-.266-.165.52.52 0 0 1-.077-.581.59.59 0 0 1 .171-.203 1.39 1.39 0 0 1 .206-.123l.091-.046.007-.003.1-.051c.14-.072.268-.145.363-.222.095-.078.107-.12.107-.12v.001c.073-.36.207-.729.52-.994zM6.935 3h6.132c.886 0 1.65 0 2.262.082.655.088 1.284.287 1.793.797.51.51.709 1.138.797 1.793C18 6.284 18 7.048 18 7.934V9a1 1 0 1 1-2 0V8c0-.971-.002-1.599-.064-2.061-.059-.434-.153-.57-.229-.646-.076-.076-.212-.17-.646-.229C14.6 5.002 13.971 5 13 5H7c-.971 0-1.599.002-2.061.064-.434.059-.57.153-.646.229-.076.076-.17.212-.229.646C4.002 6.4 4 7.029 4 8v5c0 .971.002 1.599.064 2.061.059.434.153.57.229.646.076.076.212.17.646.229C5.4 15.998 6.029 16 7 16h.5a1 1 0 1 1 0 2h-.566c-.886 0-1.65 0-2.262-.082-.655-.088-1.284-.287-1.793-.797-.51-.51-.709-1.138-.797-1.793C2 14.716 2 13.952 2 13.066V8v-.066c0-.886 0-1.65.082-2.262.088-.655.287-1.284.797-1.793.51-.51 1.138-.709 1.793-.797C5.284 3 6.048 3 6.934 3z" fill="#fff"/><path fill-rule="evenodd" clip-rule="evenodd" d="M10.742 13.671a1.11 1.11 0 0 1-1.474.01L7.23 11.837c-.366-.332-.568-.512-.726-.62a.399.399 0 0 1-.006-.005.454.454 0 0 1-.006.004c-.158.11-.36.29-.727.621L3.733 13.68a1.11 1.11 0 0 1-1.475-.008.9.9 0 0 1 .01-1.352L4.3 10.48l.04-.037c.31-.281.613-.555.896-.75.32-.221.731-.428 1.261-.428.53 0 .943.206 1.262.427.283.195.585.47.896.75l.04.037 2.036 1.842a.9.9 0 0 1 .01 1.351z" fill="#fff"/><path fill-rule="evenodd" clip-rule="evenodd" d="M17.915 9.458c-.275.463-.909.634-1.414.381l-2.67-1.335a7.835 7.835 0 0 0-.657-.31c-.002 0-.003 0-.005-.002l-.005.004a7.37 7.37 0 0 0-.549.452L9.09 11.703a1.11 1.11 0 0 1-1.473-.039.9.9 0 0 1 .041-1.35l3.526-3.055.033-.028c.237-.206.474-.411.698-.565.255-.175.573-.341.984-.39a2.23 2.23 0 0 1 1.06.147c.258.097.545.24.832.383l.039.02 2.67 1.335c.506.253.692.833.416 1.297z" fill="#fff"/></svg>
